public/icons/avalanche.svg

<svg width="104" height="22" viewBox="0 0 104 22" fill="none" xmlns="http://www.w3.org/2000/svg">
<path d="M28.1281 7.78772H29.2566L32.4195 15.1346H30.9225L30.2392 13.4533H27.0533L26.3931 15.1346H24.9268L28.1204 7.78772H28.1281ZM29.7863 12.3325L28.6578 9.34615L27.5062 12.3325H29.7863Z" fill="white"/>
<path d="M33.8242 7.78772H35.3289L37.3326 13.3382L39.3977 7.78772H40.8103L37.8393 15.1346H36.7108L33.8242 7.78772Z" fill="white"/>
<path d="M45.4783 7.78772H46.6068L49.7697 15.1346H48.2727L47.5895 13.4533H44.4035L43.7433 15.1346H42.2847L45.4783 7.78772ZM47.1365 12.3325L46.008 9.34615L44.8565 12.3325H47.1365Z" fill="white"/>
<path d="M52.6641 7.78772H53.9691V13.9523H57.0937V15.1346H52.6641V7.78772Z" fill="white"/>
<path d="M62.4905 7.78772H63.619L66.7819 15.1346H65.2849L64.6017 13.4533H61.4157L60.7555 15.1346H59.2969L62.4905 7.78772ZM64.1487 12.3325L63.0202 9.34615L61.8687 12.3325H64.1487Z" fill="white"/>
<path d="M69.6763 7.78772H71.4113L74.9657 13.2461H74.9887V7.78772H76.2938V15.1346H74.6356L71.0044 9.49969H70.9814V15.1346H69.6763V7.78772Z" fill="white"/>
<path d="M85.0455 9.50754C84.7768 9.21582 84.5158 9.02389 84.2548 8.92409C84.0091 8.82429 83.7558 8.77823 83.4948 8.77823C83.1109 8.77823 82.7655 8.84732 82.4584 8.98551C82.1513 9.11602 81.8903 9.30027 81.6676 9.54593C81.445 9.78392 81.2761 10.0603 81.1456 10.375C81.0305 10.6898 80.969 11.0353 80.969 11.4038C80.969 11.7953 81.0305 12.1638 81.1456 12.4939C81.2684 12.824 81.445 13.1157 81.6676 13.3537C81.8903 13.5994 82.1513 13.7836 82.4584 13.9218C82.7731 14.06 83.1186 14.1291 83.4948 14.1291C83.7942 14.1291 84.0782 14.06 84.3546 13.9218C84.6386 13.7759 84.8997 13.5456 85.1453 13.2386L86.2201 14.0063C85.89 14.4592 85.4831 14.797 85.0071 15.0043C84.5312 15.2115 84.0245 15.319 83.4794 15.319C82.9113 15.319 82.3893 15.2269 81.9133 15.0503C81.445 14.8661 81.0381 14.6051 80.6927 14.275C80.3549 13.9372 80.0862 13.5303 79.8943 13.062C79.7023 12.5937 79.6025 12.0717 79.6025 11.4959C79.6025 10.9048 79.7023 10.375 79.8943 9.89907C80.0862 9.41542 80.3549 9.00086 80.6927 8.66308C81.0381 8.32529 81.445 8.06427 81.9133 7.8877C82.3893 7.70345 82.9113 7.61133 83.4794 7.61133C83.9784 7.61133 84.439 7.70345 84.8613 7.88002C85.2912 8.05659 85.6904 8.34832 86.0512 8.77055L85.0378 9.51522L85.0455 9.50754Z" fill="white"/>
<path d="M89.1836 7.78772H90.4887V10.7127H93.9203V7.78772H95.2331V15.1346H93.9203V11.8949H90.4887V15.1346H89.1836V7.78772Z" fill="white"/>
<path d="M98.9482 7.78772H103.808V8.96998H100.253V10.7741H103.624V11.9563H100.253V13.9523H104V15.1346H98.9482V7.78772Z" fill="white"/>
<path fill-rule="evenodd" clip-rule="evenodd" d="M21.0656 11.4662C21.0656 17.2853 16.352 21.999 10.5328 21.999C4.71367 21.999 0 17.2853 0 11.4662C0 5.64702 4.71367 0.93335 10.5328 0.93335C16.352 0.93335 21.0656 5.64702 21.0656 11.4662ZM7.54647 15.6578H5.50439C5.07448 15.6578 4.85953 15.6578 4.7367 15.5734C4.59851 15.4812 4.51406 15.3354 4.49871 15.1665C4.49103 15.0129 4.59851 14.8287 4.80579 14.4525L9.85724 5.55489C10.0722 5.17872 10.1797 4.9868 10.3179 4.9177C10.4637 4.84093 10.6403 4.84093 10.7862 4.9177C10.9243 4.9868 11.0318 5.17872 11.2468 5.55489L12.2832 7.36666L12.2908 7.37434C12.5212 7.78122 12.644 7.9885 12.69 8.20345C12.7438 8.44144 12.7438 8.6871 12.69 8.92509C12.6363 9.14004 12.5212 9.34732 12.2832 9.76188L9.63461 14.4525L9.62693 14.4679C9.39662 14.8747 9.27379 15.082 9.11257 15.2432C8.936 15.4121 8.72105 15.535 8.48306 15.6117C8.26811 15.6732 8.03012 15.6732 7.54647 15.6732V15.6578ZM12.7054 15.6578H15.638C16.0679 15.6578 16.2906 15.6578 16.4134 15.5734C16.5516 15.4812 16.6437 15.3277 16.6514 15.1665C16.659 15.0206 16.5516 14.8364 16.352 14.4909C16.3443 14.4755 16.3366 14.4679 16.3289 14.4525L14.8626 11.9421L14.8473 11.9114C14.64 11.566 14.5402 11.3894 14.402 11.3203C14.2562 11.2435 14.0796 11.2435 13.9337 11.3203C13.7955 11.3894 13.6881 11.5736 13.4731 11.9421L12.0145 14.4525L12.0068 14.4602C11.7918 14.8287 11.6844 15.0129 11.692 15.1665C11.6997 15.3354 11.7842 15.4812 11.93 15.5734C12.0605 15.6578 12.2755 15.6578 12.7054 15.6578Z" fill="#E84142"/>
</svg>

<svg width="104" height="22" fill="none" xmlns="http://www.w3.org/2000/svg"><path d="M28.128 7.788h1.129l3.162 7.347h-1.496l-.684-1.682h-3.186l-.66 1.682h-1.466l3.193-7.347h.008Zm1.658 4.544-1.128-2.986-1.152 2.986h2.28ZM33.824 7.788h1.505l2.004 5.55 2.065-5.55h1.412l-2.97 7.347h-1.13l-2.886-7.347ZM45.478 7.788h1.129l3.163 7.347h-1.497l-.684-1.682h-3.185l-.66 1.682h-1.46l3.194-7.347Zm1.658 4.544-1.128-2.986-1.152 2.986h2.28ZM52.664 7.788h1.305v6.164h3.125v1.183h-4.43V7.788ZM62.49 7.788h1.129l3.163 7.347h-1.497l-.683-1.682h-3.186l-.66 1.682h-1.46l3.194-7.347Zm1.659 4.544L63.02 9.346l-1.151 2.986h2.28ZM69.676 7.788h1.735l3.555 5.458h.023V7.788h1.305v7.347h-1.658L71.004 9.5h-.023v5.635h-1.305V7.788ZM85.046 9.508c-.27-.292-.53-.484-.791-.584a1.997 1.997 0 0 0-.76-.146c-.384 0-.73.07-1.037.208a2.22 2.22 0 0 0-.79.56 2.715 2.715 0 0 0-.522.829c-.115.315-.177.66-.177 1.029 0 .391.062.76.177 1.09.122.33.299.622.522.86.222.245.483.43.79.568.315.138.66.207 1.037.207.3 0 .583-.069.86-.207.284-.146.545-.376.79-.683l1.075.767c-.33.453-.737.791-1.213.998a3.779 3.779 0 0 1-1.528.315 4.47 4.47 0 0 1-1.566-.269 3.722 3.722 0 0 1-1.22-.775 3.666 3.666 0 0 1-.799-1.213 4.093 4.093 0 0 1-.291-1.566c0-.591.1-1.121.291-1.597.192-.484.46-.898.799-1.236a3.489 3.489 0 0 1 1.22-.775 4.303 4.303 0 0 1 1.566-.277c.5 0 .96.092 1.382.269.43.177.83.468 1.19.89l-1.013.745.008-.007ZM89.184 7.788h1.305v2.925h3.431V7.788h1.313v7.347H93.92v-3.24H90.49v3.24h-1.305V7.788ZM98.948 7.788h4.86V8.97h-3.555v1.804h3.371v1.182h-3.371v1.996H104v1.183h-5.052V7.788Z" fill="#fff"/><path fill-rule="evenodd" clip-rule="evenodd" d="M21.066 11.466c0 5.82-4.714 10.533-10.533 10.533C4.713 21.999 0 17.285 0 11.466 0 5.647 4.714.933 10.533.933c5.819 0 10.533 4.714 10.533 10.533Zm-13.52 4.192H5.504c-.43 0-.644 0-.767-.085a.539.539 0 0 1-.238-.407c-.008-.153.1-.337.307-.713l5.051-8.898c.215-.376.323-.568.46-.637a.505.505 0 0 1 .47 0c.137.069.245.26.46.637l1.036 1.812.008.007c.23.407.353.615.399.83.054.237.054.483 0 .721-.054.215-.169.422-.407.837l-2.648 4.69-.008.016c-.23.407-.353.614-.514.775a1.624 1.624 0 0 1-.63.369c-.215.061-.453.061-.937.061v-.015Zm5.16 0h2.932c.43 0 .653 0 .775-.085a.53.53 0 0 0 .238-.407c.008-.145-.1-.33-.299-.675l-.023-.038-1.466-2.51-.016-.032c-.207-.345-.307-.522-.445-.59a.505.505 0 0 0-.468 0c-.138.068-.246.253-.46.621l-1.46 2.51-.007.008c-.215.369-.323.553-.315.706a.499.499 0 0 0 .238.407c.13.085.345.085.775.085Z" fill="#E84142"/></svg>
